X:428
T:Lady Lucinda Ramsay
R:Strathspey
B:The Athole Collection
M:C
L:1/8
K:G Minor
B/c/|d<GB<G D<GGA/B/|c<FA<F C<FFA/c/|1 d<GB<G D<GGA/B/|
AB/c/ d/c/B/A/ B>GG:|2 BA/G/ AG/^F/ G<DE<C|B,>C D<^F G>G,G,||
d|g<ba<b g<dB<G|c<ag<a f<cA<F|g<ba<b g<dB<G|AB/c/ D>d B<G G>d|
g<ba<b g<dB<G|c<ag<a f<cA<F|G>B c<A B>d =e<c|d<g^f<a g2g||

